X:1
T:Title
%%score { ( 1 3 4 ) | ( 2 5 6 ) }
L:1/8
M:4/4
K:Ab
V:1 treble nm="Grand Piano"
V:3 treble 
V:4 treble 
V:2 bass 
V:5 bass 
V:6 bass 
V:1
 z4 z2 z[Q:1/4=85] E | AGBA dc F>F |[M:7/8] GAB G[_CF] [=CE]2 |[M:1/8] [CE] |[M:4/4] AGBA dc F>F | %5
[M:7/8] [=DB][DF][DA] [DF] B3 |[M:1/8] E |[M:4/4] [CA][CG][CB][CA] .[CF]2[K:bass] z E | %8
 [CA][CG][CB][CA] z2[K:bass] z E | [DB][D=A][Dc][DB] .[DG]2[K:bass] z E | z4 [E=c]4[K:bass] | %11
 [CA][CG][CB][CA] .[CF]2[K:bass] z E | [CA][DB][Ec]A F3 F | AFAF E[EA][_Ge][Fd] | %14
[M:17/16] c-<cBB[CA]/-[CA]/-[CA]/-[CA]/-[CA]/-[CA]-<[CA] |] %15
V:2
 z4 z2 z [A,C] | [A,CE][A,B,E][A,DE][A,CE] [G,B,E][A,E] [D,A,D]>[D,B,D] | %2
[M:7/8] [E,B,D][E,A,D][E,G,D] [E,B,D] [A,,A,]3 |[M:1/8] [A,,A,] | %4
[M:4/4] [A,CE][A,B,E][A,DE][A,CE] [G,B,E][A,E] [D,A,D]>[D,A,D] | %5
[M:7/8] [B,,A,][B,,A,][B,,F,] [B,,A,] [E,G,D]3 |[M:1/8] D |[M:4/4] z4 z .C3 | %8
 [A,,A,]2 [E,,E,]2 [B,,B,]2 z D | z4 z .D3 | [G,,G,]2 [E,,E,]2 [A,,A,]2 z C | z4 z .C3 | %12
 [A,,A,]2 z C [D,A,D]3 [D,A,D] | [D,F,D][D,A,D][=D,F,_C][D,A,C] [E,A,=C][C,A,][C,A,][D,A,] | %14
[M:17/16] [E,A,E]-<[E,A,E][E,G,D][E,G,D][A,,A,]/-[A,,A,]/-[A,,A,]/-[A,,A,]/-[A,,A,]/-[A,,A,]-<[A,,A,] |] %15
V:3
 x8 | x8 |[M:7/8] x7 |[M:1/8] x |[M:4/4] x8 |[M:7/8] x7 |[M:1/8] x |[M:4/4] z4 z .E3[K:bass] | %8
 z4 [DG]4[K:bass] | z4 z .F3[K:bass] | [DB][C=A][DB][=D_c] z2[K:bass] z E | z4 z .E3[K:bass] | x8 | %13
 x8 |[M:17/16] x17/2 |] %15
V:4
 x8 | x8 |[M:7/8] x7 |[M:1/8] x |[M:4/4] x8 |[M:7/8] x7 |[M:1/8] x |[M:4/4] z4 z2[K:bass] E,2 | %8
 z4 z2[K:bass] E,2 | z4 z2[K:bass] E,2 | z4 z2[K:bass] E,2 | z4 z2[K:bass] E,2 | x8 | x8 | %14
[M:17/16] x17/2 |] %15
V:5
 x8 | x8 |[M:7/8] x7 |[M:1/8] x |[M:4/4] x8 |[M:7/8] x7 |[M:1/8] x | %7
[M:4/4] [A,,A,]2 [E,,E,]2 z2 z C | z4 z2 E,,2 | [G,,G,]2 [E,,E,]2 z2 z D | z4 z2 E,,2 | %11
 [A,,A,]2 [E,,E,]2 z2 z C | z2 [E,,E,]2 z4 | x8 |[M:17/16] x17/2 |] %15
V:6
 x8 | x8 |[M:7/8] x7 |[M:1/8] x |[M:4/4] x8 |[M:7/8] x7 |[M:1/8] x |[M:4/4] z4 [A,,A,]2 E,,2 | x8 | %9
 z4 [G,,G,]2 E,,2 | x8 | z4 [A,,A,]2 E,,2 | x8 | x8 |[M:17/16] x17/2 |] %15

